src/images/logo.svg

<svg width="183" height="31" viewBox="0 0 183 31" fill="none" xmlns="http://www.w3.org/2000/svg">
<path d="M2.0293 24.0574H0V10.8995H2.0293V16.6364H8.89153V10.8995H10.9208V24.0574H8.89153V18.0574H2.0293V24.0574Z" fill="#224CFF"/>
<path d="M16.7774 15.189L14.935 14.61C15.2376 13.2767 15.8695 12.2855 16.8308 11.6364C17.792 10.9697 19.0203 10.6364 20.5156 10.6364C22.2244 10.6364 23.4883 10.9872 24.3071 11.689C25.126 12.3732 25.5354 13.4258 25.5354 14.8469V22.4258H27.7516V24.0574H23.3459L23.5061 22.3995V20.6364L21.7171 23.2679C21.2721 23.6188 20.7559 23.882 20.1684 24.0574C19.5988 24.2153 19.0114 24.2942 18.4062 24.2942C17.3559 24.2942 16.4837 23.9785 15.7894 23.3469C15.0952 22.7153 14.7481 21.8293 14.7481 20.689C14.7481 19.5837 15.0774 18.7942 15.736 18.3206C16.4125 17.8293 17.2046 17.4609 18.1124 17.2153C19.0381 16.9697 19.9993 16.7504 20.9962 16.5574C22.0108 16.3644 22.8475 16.0048 23.5061 15.4785V14.9258C23.5061 14.0662 23.248 13.3907 22.7318 12.8995C22.2333 12.3907 21.4501 12.1364 20.3821 12.1364C19.2606 12.1364 18.4418 12.3907 17.9255 12.8995C17.4093 13.3907 17.0266 14.1539 16.7774 15.189ZM16.9109 20.3995C16.9109 21.1539 17.1245 21.7416 17.5517 22.1627C17.9967 22.5662 18.5486 22.7679 19.2072 22.7679C20.0794 22.7679 20.8716 22.5135 21.5836 22.0048C22.3134 21.496 22.9543 20.6539 23.5061 19.4785V15.8469C23.0255 16.4083 22.4114 16.8206 21.6637 17.0837C20.9161 17.3293 20.1862 17.5749 19.4742 17.8206C18.78 18.0486 18.1747 18.3469 17.6585 18.7153C17.1601 19.0837 16.9109 19.6451 16.9109 20.3995Z" fill="#224CFF"/>
<path d="M30.0208 17.4785C30.0208 16.4785 30.1899 15.5574 30.5281 14.7153C30.8663 13.8732 31.3292 13.1539 31.9166 12.5574C32.504 11.9609 33.1983 11.496 33.9993 11.1627C34.8181 10.8118 35.6904 10.6364 36.616 10.6364C38.0401 10.6364 39.2951 11.0223 40.3809 11.7942C41.4846 12.5662 42.1788 13.6013 42.4636 14.8995L40.5945 15.61C40.3631 14.3995 39.8825 13.496 39.1526 12.8995C38.4406 12.2855 37.5595 11.9785 36.5092 11.9785C35.281 11.9785 34.2663 12.4697 33.4653 13.4521C32.682 14.4171 32.2904 15.7592 32.2904 17.4785C32.2904 19.2153 32.6998 20.5662 33.5187 21.5311C34.3375 22.4785 35.3433 22.9521 36.5359 22.9521C37.604 22.9521 38.4851 22.6364 39.1793 22.0048C39.8736 21.3557 40.3453 20.4258 40.5945 19.2153L42.4636 19.9258C42.1966 21.2592 41.5113 22.3293 40.4076 23.1364C39.3218 23.9258 38.0579 24.3206 36.616 24.3206C35.6904 24.3206 34.8181 24.1539 33.9993 23.8206C33.1983 23.4697 32.504 22.996 31.9166 22.3995C31.3292 21.803 30.8663 21.0837 30.5281 20.2416C30.1899 19.3995 30.0208 18.4785 30.0208 17.4785Z" fill="#224CFF"/>
<path d="M51.3697 24.0574H49.3404V12.3206H44.4808V10.8995H56.2294V12.3206H51.3697V24.0574Z" fill="#224CFF"/>
<path d="M60.1931 15.189L58.3507 14.61C58.6533 13.2767 59.2852 12.2855 60.2465 11.6364C61.2077 10.9697 62.436 10.6364 63.9312 10.6364C65.6401 10.6364 66.904 10.9872 67.7228 11.689C68.5417 12.3732 68.9511 13.4258 68.9511 14.8469V22.4258H71.1673V24.0574H66.7616L66.9218 22.3995V20.6364L65.1328 23.2679C64.6878 23.6188 64.1715 23.882 63.5841 24.0574C63.0145 24.2153 62.4271 24.2942 61.8218 24.2942C60.7716 24.2942 59.8993 23.9785 59.2051 23.3469C58.5109 22.7153 58.1638 21.8293 58.1638 20.689C58.1638 19.5837 58.4931 18.7942 59.1517 18.3206C59.8281 17.8293 60.6203 17.4609 61.5281 17.2153C62.4538 16.9697 63.415 16.7504 64.4119 16.5574C65.4265 16.3644 66.2631 16.0048 66.9218 15.4785V14.9258C66.9218 14.0662 66.6637 13.3907 66.1474 12.8995C65.649 12.3907 64.8658 12.1364 63.7977 12.1364C62.6763 12.1364 61.8574 12.3907 61.3412 12.8995C60.825 13.3907 60.4423 14.1539 60.1931 15.189ZM60.3266 20.3995C60.3266 21.1539 60.5402 21.7416 60.9674 22.1627C61.4124 22.5662 61.9642 22.7679 62.6229 22.7679C63.4951 22.7679 64.2873 22.5135 64.9993 22.0048C65.7291 21.496 66.3699 20.6539 66.9218 19.4785V15.8469C66.4412 16.4083 65.827 16.8206 65.0794 17.0837C64.3318 17.3293 63.6019 17.5749 62.8899 17.8206C62.1957 18.0486 61.5904 18.3469 61.0742 18.7153C60.5758 19.0837 60.3266 19.6451 60.3266 20.3995Z" fill="#224CFF"/>
<path d="M85.0198 20.3469C85.0198 21.5399 84.5926 22.4609 83.7382 23.11C82.8837 23.7416 81.5754 24.0574 79.8131 24.0574H74.4194V10.8995H79.5728C81.2638 10.8995 82.4832 11.189 83.2309 11.7679C83.9785 12.3469 84.3523 13.1276 84.3523 14.11C84.3523 14.7416 84.1743 15.3293 83.8183 15.8732C83.4801 16.3995 82.8926 16.8206 82.056 17.1364C83.124 17.3995 83.8806 17.8118 84.3256 18.3732C84.7884 18.9346 85.0198 19.5925 85.0198 20.3469ZM79.6262 12.3206H76.4487V16.6627H79.8131C80.5785 16.6627 81.1837 16.4521 81.6288 16.0311C82.0916 15.5925 82.323 15.0486 82.323 14.3995C82.323 13.7153 82.1005 13.1978 81.6555 12.8469C81.2104 12.496 80.534 12.3206 79.6262 12.3206ZM79.8398 17.7416H76.4487V22.6364H79.733C80.801 22.6364 81.611 22.4434 82.1628 22.0574C82.7146 21.6714 82.9905 21.0574 82.9905 20.2153C82.9905 19.4609 82.7146 18.8644 82.1628 18.4258C81.6288 17.9697 80.8544 17.7416 79.8398 17.7416Z" fill="#224CFF"/>
<path d="M90.373 24.0574H88.3437V10.8995H90.373V16.6364H97.2353V10.8995H99.2646V24.0574H97.2353V18.0574H90.373V24.0574Z" fill="#224CFF"/>
<path d="M105.575 24.0574H103.546V10.8995H105.575V21.5048L112.811 10.8995H114.84V24.0574H112.811V13.4521L105.575 24.0574Z" fill="#224CFF"/>
<path d="M128.058 24.0574L121.142 17.8206V24.0574H119.113V10.8995H121.142V16.8206L127.657 10.8995H130.114L123.145 17.1627L130.648 24.0574H128.058Z" fill="#224CFF"/>
<path d="M135.672 24.0574H133.055V21.5311H135.672V24.0574Z" fill="#224CFF"/>
<path d="M141.637 24.0574H139.608V10.8995H150.315V24.0574H148.286V12.3206H141.637V24.0574Z" fill="#224CFF"/>
<path d="M161.598 24.3206C160.352 24.3206 159.275 23.9434 158.367 23.189C157.477 22.4171 156.89 21.3206 156.605 19.8995V30.6364H154.575V10.8995H156.605V15.0048C156.907 13.5837 157.495 12.5048 158.367 11.7679C159.257 11.0135 160.316 10.6364 161.544 10.6364C162.257 10.6364 162.951 10.7767 163.627 11.0574C164.304 11.3381 164.9 11.7592 165.416 12.3206C165.932 12.8644 166.342 13.5662 166.644 14.4258C166.965 15.2855 167.125 16.2942 167.125 17.4521C167.125 18.61 166.965 19.6188 166.644 20.4785C166.342 21.3381 165.932 22.0574 165.416 22.6364C164.918 23.1978 164.33 23.6188 163.654 23.8995C162.995 24.1802 162.31 24.3206 161.598 24.3206ZM164.882 17.4785C164.882 16.5662 164.766 15.7767 164.535 15.11C164.304 14.4258 164.001 13.8644 163.627 13.4258C163.253 12.9697 162.808 12.6364 162.292 12.4258C161.794 12.1978 161.269 12.0837 160.717 12.0837C159.542 12.0837 158.563 12.5399 157.78 13.4521C157.014 14.3644 156.631 15.7065 156.631 17.4785C156.631 19.2504 157.023 20.6013 157.806 21.5311C158.59 22.4609 159.595 22.9258 160.824 22.9258C161.909 22.9258 162.853 22.4785 163.654 21.5837C164.473 20.6714 164.882 19.303 164.882 17.4785Z" fill="#224CFF"/>
<path d="M176.458 10.6364C177.366 10.6364 178.212 10.803 178.995 11.1364C179.796 11.4697 180.49 11.9434 181.078 12.5574C181.683 13.1539 182.154 13.8732 182.493 14.7153C182.831 15.5574 183 16.4785 183 17.4785C183 18.4785 182.831 19.3995 182.493 20.2416C182.154 21.0837 181.692 21.8118 181.104 22.4258C180.517 23.0223 179.823 23.4872 179.021 23.8206C178.22 24.1539 177.366 24.3206 176.458 24.3206C175.55 24.3206 174.696 24.1539 173.895 23.8206C173.094 23.4872 172.4 23.0223 171.812 22.4258C171.225 21.8118 170.753 21.0837 170.397 20.2416C170.059 19.3995 169.89 18.4785 169.89 17.4785C169.89 16.4785 170.059 15.5574 170.397 14.7153C170.753 13.8732 171.225 13.1539 171.812 12.5574C172.4 11.9434 173.094 11.4697 173.895 11.1364C174.696 10.803 175.55 10.6364 176.458 10.6364ZM176.485 12.0048C175.221 12.0048 174.18 12.4785 173.361 13.4258C172.56 14.3557 172.159 15.7065 172.159 17.4785C172.159 19.1276 172.56 20.4521 173.361 21.4521C174.18 22.4521 175.221 22.9521 176.485 22.9521C177.767 22.9521 178.79 22.4521 179.556 21.4521C180.339 20.4521 180.73 19.1276 180.73 17.4785C180.73 15.7065 180.339 14.3557 179.556 13.4258C178.79 12.4785 177.767 12.0048 176.485 12.0048Z" fill="#224CFF"/>
</svg>

<svg width="183" height="31" fill="none" xmlns="http://www.w3.org/2000/svg"><path d="M2.03 24.057H0V10.9h2.03v5.736h6.862V10.9h2.029v13.157H8.89v-6H2.03v6zM16.777 15.189l-1.842-.579c.303-1.333.934-2.324 1.896-2.974.961-.666 2.19-1 3.685-1 1.708 0 2.972.351 3.791 1.053.819.684 1.228 1.737 1.228 3.158v7.579h2.217v1.631h-4.406l.16-1.657v-1.764l-1.789 2.632c-.445.35-.961.614-1.549.79a6.566 6.566 0 01-1.762.236c-1.05 0-1.922-.316-2.617-.947-.694-.632-1.04-1.518-1.04-2.658 0-1.105.328-1.895.987-2.368.677-.492 1.469-.86 2.376-1.106a43.454 43.454 0 012.884-.658c1.015-.193 1.852-.552 2.51-1.078v-.553c0-.86-.258-1.535-.774-2.027-.499-.508-1.282-.763-2.35-.763-1.121 0-1.94.255-2.457.764-.516.49-.898 1.254-1.148 2.289zm.134 5.21c0 .755.213 1.343.64 1.764.446.403.998.605 1.656.605.872 0 1.665-.255 2.377-.763.73-.509 1.37-1.351 1.922-2.526v-3.632c-.48.561-1.095.974-1.842 1.237-.748.245-1.478.49-2.19.737-.694.228-1.3.526-1.816.894-.498.369-.747.93-.747 1.684zM30.02 17.479c0-1 .17-1.922.508-2.764a6.47 6.47 0 011.389-2.158 6.267 6.267 0 012.082-1.394 6.573 6.573 0 012.617-.527c1.424 0 2.68.386 3.765 1.158 1.104.772 1.798 1.807 2.083 3.105l-1.87.711c-.23-1.21-.712-2.114-1.441-2.71-.712-.614-1.593-.921-2.644-.921-1.228 0-2.243.49-3.044 1.473-.783.965-1.175 2.307-1.175 4.027 0 1.736.41 3.087 1.229 4.052.819.948 1.824 1.421 3.017 1.421 1.068 0 1.95-.316 2.643-.947.695-.65 1.166-1.58 1.415-2.79l1.87.71c-.267 1.334-.953 2.404-2.056 3.211-1.086.79-2.35 1.185-3.792 1.185a6.874 6.874 0 01-2.617-.5 6.615 6.615 0 01-2.082-1.422 6.47 6.47 0 01-1.389-2.157c-.338-.843-.507-1.764-.507-2.764zM51.37 24.057h-2.03V12.321h-4.86V10.9h11.75v1.42h-4.86v11.737zM60.193 15.189l-1.842-.579c.302-1.333.934-2.324 1.895-2.974.962-.666 2.19-1 3.685-1 1.71 0 2.973.351 3.792 1.053.819.684 1.228 1.737 1.228 3.158v7.579h2.216v1.631h-4.405l.16-1.657v-1.764l-1.79 2.632c-.444.35-.96.614-1.548.79a6.566 6.566 0 01-1.762.236c-1.05 0-1.923-.316-2.617-.947-.694-.632-1.041-1.518-1.041-2.658 0-1.105.33-1.895.988-2.368.676-.492 1.468-.86 2.376-1.106a43.454 43.454 0 012.884-.658c1.014-.193 1.851-.552 2.51-1.078v-.553c0-.86-.258-1.535-.775-2.027-.498-.508-1.281-.763-2.35-.763-1.12 0-1.94.255-2.456.764-.516.49-.899 1.254-1.148 2.289zm.134 5.21c0 .755.213 1.343.64 1.764.445.403.997.605 1.656.605.872 0 1.664-.255 2.376-.763.73-.509 1.37-1.351 1.923-2.526v-3.632c-.48.561-1.095.974-1.843 1.237-.747.245-1.477.49-2.19.737-.693.228-1.299.526-1.815.894-.498.369-.747.93-.747 1.684zM85.02 20.347c0 1.193-.427 2.114-1.282 2.763-.854.632-2.163.947-3.925.947H74.42V10.9h5.154c1.69 0 2.91.289 3.658.868.748.579 1.121 1.36 1.121 2.342 0 .632-.178 1.22-.534 1.763-.338.527-.925.948-1.762 1.263 1.068.264 1.825.676 2.27 1.237.462.562.694 1.22.694 1.974zm-5.394-8.026H76.45v4.342h3.364c.766 0 1.37-.21 1.816-.632.463-.438.694-.982.694-1.631 0-.685-.222-1.202-.667-1.553-.446-.351-1.122-.526-2.03-.526zm.214 5.42h-3.391v4.895h3.284c1.068 0 1.878-.193 2.43-.579.552-.386.828-1 .828-1.842 0-.754-.276-1.35-.828-1.79-.534-.455-1.309-.683-2.323-.683zM90.373 24.057h-2.03V10.9h2.03v5.736h6.862V10.9h2.03v13.157h-2.03v-6h-6.862v6zM105.575 24.057h-2.029V10.9h2.029v10.605l7.236-10.605h2.029v13.157h-2.029V13.452l-7.236 10.605zM128.058 24.057l-6.916-6.236v6.236h-2.029V10.9h2.029v5.92l6.515-5.92h2.457l-6.969 6.263 7.503 6.894h-2.59zM135.672 24.057h-2.617v-2.526h2.617v2.526zM141.637 24.057h-2.029V10.9h10.707v13.157h-2.029V12.321h-6.649v11.736zM161.598 24.32c-1.246 0-2.323-.377-3.231-1.131-.89-.772-1.477-1.868-1.762-3.29v10.737h-2.03V10.9h2.03v4.105c.302-1.421.89-2.5 1.762-3.237.89-.755 1.949-1.132 3.177-1.132.713 0 1.407.14 2.083.421.677.281 1.273.702 1.789 1.264.516.543.926 1.245 1.228 2.105.321.86.481 1.868.481 3.026 0 1.158-.16 2.167-.481 3.026-.302.86-.712 1.58-1.228 2.158a4.783 4.783 0 01-1.762 1.264 5.194 5.194 0 01-2.056.42zm3.284-6.841c0-.913-.116-1.702-.347-2.369-.231-.684-.534-1.246-.908-1.684a3.345 3.345 0 00-1.335-1 3.74 3.74 0 00-1.575-.342c-1.175 0-2.154.456-2.937 1.368-.766.912-1.149 2.255-1.149 4.027 0 1.771.392 3.122 1.175 4.052.784.93 1.789 1.395 3.018 1.395 1.085 0 2.029-.447 2.83-1.342.819-.913 1.228-2.281 1.228-4.105zM176.458 10.636c.908 0 1.754.167 2.537.5a6.088 6.088 0 012.083 1.421 6.28 6.28 0 011.415 2.158c.338.842.507 1.764.507 2.764 0 1-.169 1.92-.507 2.763a6.777 6.777 0 01-1.389 2.184 6.256 6.256 0 01-2.083 1.395c-.801.333-1.655.5-2.563.5a6.603 6.603 0 01-2.563-.5 6.276 6.276 0 01-2.083-1.395 7.159 7.159 0 01-1.415-2.184c-.338-.843-.507-1.764-.507-2.764 0-1 .169-1.92.507-2.763a6.828 6.828 0 011.415-2.158 6.088 6.088 0 012.083-1.42 6.601 6.601 0 012.563-.5zm.027 1.369c-1.264 0-2.305.473-3.124 1.42-.801.93-1.202 2.281-1.202 4.053 0 1.65.401 2.974 1.202 3.974.819 1 1.86 1.5 3.124 1.5 1.282 0 2.305-.5 3.071-1.5.783-1 1.174-2.324 1.174-3.974 0-1.772-.391-3.122-1.174-4.052-.766-.947-1.789-1.421-3.071-1.421z" fill="#224CFF"/></svg>
